X:1
T:In Babilone, 87. 87 D
T:In Babilone, 87. 87 D
T:Traditional Dutch melody, arr. by Röntgen 1906
T:Public Domain Courtesy of the Cyber Hymnal™
C:Traditional Dutch melody, arr. by Röntgen 1906
Z:Public Domain
Z:Courtesy of the Cyber Hymnal™
%%score ( 1 2 ) ( 3 4 )
L:1/8
Q:1/4=115
M:4/4
K:G
V:1 treble 
V:2 treble 
V:3 bass 
V:4 bass 
V:1
 [DG]2 (FE) [B,D]2 [B,G]2 | [EA]2 ([EG][FA]) [GB]2 [DG]2 | [Ec]2 (BA) [DB]2 (AG) | %3
 ([CF][DG]) ([EA][DF]) [DG]4 | [DG]2 (FE) [B,D]2 [B,G]2 | [EA]2 ([EG][FA]) [GB]2 [DG]2 | %6
 [Ec]2 (BA) [DB]2 (AG) | ([CF][DG]) ([EA][DF]) [DG]4 | [B,G]2 (AB) [Ec]2 [^FB]2 | %9
 [EA]2 [E^G]2 [EA]2 [EA]2 | [FA]2 (Bc) [Dd]2 [EG]2 | [DA]2 (GF) [^CE]2 D2 | %12
 [DG]2 (FE) [B,D]2 [B,G]2 | [EA]2 ([EG][FA]) [GB]2 [DG]2 | [Ec]2 (BA) [DB]2 (AG) | %15
 ([CF][DG]) ([EA][DF]) [DG]4 |] %16
V:2
 x2 C2 x4 | x8 | x2 D2 x E2 x | x8 | x2 C2 x4 | x8 | x2 D2 x E2 x | x8 | x2 =F2 x4 | x8 | %10
 x2 D2 x4 | x2 D2 x D2 x | x2 C2 x4 | x8 | x2 D2 x E2 x | x8 |] %16
V:3
 [G,,B,]2 (A,F,) [B,,G,]2 [E,G,]2 | [C,G,]2 [D,D]2 [G,,D]2 [B,,G,]2 | %2
 [A,,G,]2 [D,F,]2 [B,,G,]2 [E,B,]2 | ([A,,C][B,,B,]) ([C,A,][D,C]) [G,,B,]4 | %4
 [G,,B,]2 (A,F,) [B,,G,]2 [E,G,]2 | [C,G,]2 [D,D]2 [G,,D]2 [B,,G,]2 | %6
 [A,,G,]2 [D,F,]2 [B,,G,]2 [E,B,]2 | ([A,,C][B,,B,]) ([C,A,][D,C]) [G,,B,]4 | %8
 [E,G,]2 [D,=F,]2 [C,G,]2 [D,D]2 | [E,C]2 [E,B,]2 [A,,C]2 [A,,C]2 | %10
 [D,D]2 [C,F,]2 [B,,G,]2 [E,B,]2 | [F,,A,]2 [G,,B,]2 [A,,G,]2 [D,F,]2 | %12
 [G,,B,]2 (A,F,) [B,,G,]2 [E,G,]2 | [C,G,]2 [D,D]2 [G,,D]2 [B,,G,]2 | %14
 [A,,G,]2 [D,F,]2 [B,,G,]2 [E,B,]2 | ([A,,C][B,,B,]) ([C,A,][D,C]) [G,,B,]4 |] %16
V:4
 x2 A,,2 x4 | x8 | x8 | x8 | x2 A,,2 x4 | x8 | x8 | x8 | x8 | x8 | x8 | x8 | x2 A,,2 x4 | x8 | x8 | %15
 x8 |] %16

